X: 6408
T: Castle Of Dromore, The
R: waltz
M: 3/4
K: Gmajor
Bc|d4 d2|d4 d2|e4 d2|d2 e2 f2|g4 c2|B4- c2|d6-|d4 ef|
g4 G2|G4 G2|A4 G2|G3 A B2|c4 e2|d4 c2|B6-|B2 e2 f2|
g3 a g2|f2 g2 f2|e3 f e2|d4- c2|B4 d2|c2 B2 A2|G6|G2 B2 d2|
c3 B c2|A4 c2|B2 B2 G2|B4 d2|c3 d c2|A4 F2|G6-|G4||

